svg/voltage_dc.svg

<svg width="24" height="24" viewBox="0 0 24 24" xmlns="http://www.w3.org/2000/svg"><path d="M2 2v2h20V2H2zm0 4v2h5V6H2zm7 0v2h6V6H9zm8 0v2h5V6h-5zM14.6 10.9H17L13.2 22h-2.6L6.9 10.9h2.4L12 20l2.6-9.1z"/></svg>

<svg width="24" height="24" viewBox="0 0 24 24" xmlns="http://www.w3.org/2000/svg">
<path d="M2 2V4H22V2H2ZM2 6V8H7V6H2ZM9 6V8H15V6H9ZM17 6V8H22V6H17Z" />
<path d="M14.6 10.9H17L13.2 22H10.6L6.9 10.9H9.3L12 20L14.6 10.9Z" />
</svg>
